DEF kr10r11002()


GLOBAL INTERRUPT DECL 3 WHEN $STOPMESS==TRUE DO IR_STOPM ( )
INTERRUPT ON 3
BAS (#INITMOV,0)

$BWDSTART = FALSE
PDAT_ACT = {VEL 15, ACC 100, APO_DIST 50}
FDAT_ACT = {TOOL_NO 0, BASE_NO 0, IPO_FRAME #BASE}
#PTP_PRAMS, 15
PTP {A1 5,A2 -90,A3 100,A4 5,A5 10,A6 -5,E1 0,E2 0,E3 0,E4 0}
$VEL.CP=0.25
$ADVANCE=3

$OUT[1] = TRUE
LIN {X 694.323085355, Y -206.642715447, Z 500.0, A 0, B -90, C 48.7226146433, E1 0, E2 0} C_DIS
$VEL.CP=0.0506061238729
LIN {X 669.264820097, Y -180.823852516, Z 500.0, A 0, B -90, C 42.6030014355, E1 0, E2 0} C_DIS
$VEL.CP=0.0689963911283
LIN {X 641.058681150, Y -158.521308436, Z 500.0, A 0, B -90, C 33.4087564105, E1 0, E2 0} C_DIS
$VEL.CP=0.1
LIN {X 609.022260871, Y -142.306764403, Z 500.0, A 0, B -90, C 19.3270157967, E1 0, E2 0} C_DIS
$VEL.CP=0.14454788549
LIN {X 573.743765227, Y -136.055438261, Z 500.0, A 0, B -90, C 0.224351411086, E1 0, E2 0} C_DIS
$VEL.CP=0.169157639477
LIN {X 538.376538343, Y -141.867856906, Z 500.0, A 0, B -90, C 341.916889346, E1 0, E2 0} C_DIS
$VEL.CP=0.132215546813
LIN {X 505.693041156, Y -156.801546913, Z 500.0, A 0, B -90, C 330.205862936, E1 0, E2 0} C_DIS
$VEL.CP=0.0742166144185
LIN {X 475.393676948, Y -176.217981719, Z 500.0, A 0, B -90, C 325.672156437, E1 0, E2 0} C_DIS
$VEL.CP=0.0177723404653
LIN {X 445.278379809, Y -195.921191620, Z 500.0, A 0, B -90, C 329.886527704, E1 0, E2 0} C_DIS
$VEL.CP=0.0986199322542
LIN {X 411.719058787, Y -207.997289274, Z 500.0, A 0, B -90, C 357.048626622, E1 0, E2 0} C_DIS
$VEL.CP=0.400235055057
LIN {X 379.699239667, Y -194.219110481, Z 500.0, A 0, B -90, C 45.2859172364, E1 0, E2 0} C_DIS
$VEL.CP=0.25
LIN {X 379.699239667, Y -180.991177574, Z 500.0, A 0, B -90, C 51.0510245951, E1 0, E2 0} C_DIS
$VEL.CP=0.25
LIN {X 410.821393238, Y -199.276518390, Z 500.0, A 0, B -90, C 4.18297747050, E1 0, E2 0} C_DIS
$VEL.CP=0.536808394015
LIN {X 446.337828156, Y -189.864111471, Z 500.0, A 0, B -90, C 333.208436510, E1 0, E2 0} C_DIS
$VEL.CP=0.0982206497821
LIN {X 478.285576278, Y -170.858349219, Z 500.0, A 0, B -90, C 327.345618082, E1 0, E2 0} C_DIS
$VEL.CP=-0.0391464565933
LIN {X 509.887571336, Y -151.259903100, Z 500.0, A 0, B -90, C 330.114190653, E1 0, E2 0} C_DIS
$VEL.CP=0.0178711819377
LIN {X 543.305097223, Y -135.027788977, Z 500.0, A 0, B -90, C 339.135679471, E1 0, E2 0} C_DIS
$VEL.CP=0.0869450517118
LIN {X 579.335947293, Y -126.286005043, Z 500.0, A 0, B -90, C 354.598041413, E1 0, E2 0} C_DIS
$VEL.CP=0.15105303183
LIN {X 616.261208207, Y -128.906330526, Z 500.0, A 0, B -90, C 13.5531655010, E1 0, E2 0} C_DIS
$VEL.CP=0.153352113453
LIN {X 650.623012889, Y -142.806825186, Z 500.0, A 0, B -90, C 29.6542473350, E1 0, E2 0} C_DIS
$VEL.CP=0.1
LIN {X 680.827085207, Y -164.405717960, Z 500.0, A 0, B -90, C 40.7218375508, E1 0, E2 0} C_DIS
$VEL.CP=0.0507847968814
LIN {X 707.268238412, Y -190.521833613, Z 500.0, A 0, B -90, C 48.0895377620, E1 0, E2 0} C_DIS
$VEL.CP=0.0195351150671
LIN {X 720.213391468, Y -174.400951778, Z 500.0, A 0, B -90, C 47.4195683479, E1 0, E2 0} C_DIS
$VEL.CP=-0.0414655260619
LIN {X 692.240750721, Y -148.038001390, Z 500.0, A 0, B -90, C 38.5996287921, E1 0, E2 0} C_DIS
$VEL.CP=0.0174156329687
LIN {X 659.844712793, Y -127.436638842, Z 500.0, A 0, B -90, C 25.4736605876, E1 0, E2 0} C_DIS
$VEL.CP=0.1
LIN {X 623.179894041, Y -116.290366235, Z 500.0, A 0, B -90, C 7.78360966063, E1 0, E2 0} C_DIS
$VEL.CP=0.154261549466
LIN {X 584.873992248, Y -117.243518003, Z 500.0, A 0, B -90, C 349.893075029, E1 0, E2 0} C_DIS
$VEL.CP=0.102985556435
LIN {X 548.160963417, Y -128.484631758, Z 500.0, A 0, B -90, C 337.091368715, E1 0, E2 0} C_DIS
$VEL.CP=0.000713476420106
LIN {X 513.841277135, Y -145.826962142, Z 500.0, A 0, B -90, C 330.219183938, E1 0, E2 0} C_DIS
$VEL.CP=-0.0924789857744
LIN {X 480.831619347, Y -165.592130987, Z 500.0, A 0, B -90, C 328.968313329, E1 0, E2 0} C_DIS
$VEL.CP=-0.127813439233
LIN {X 446.995378086, Y -183.850759117, Z 500.0, A 0, B -90, C 336.536887164, E1 0, E2 0} C_DIS
$VEL.CP=0.101168443923
LIN {X 409.659398297, Y -190.269298624, Z 500.0, A 0, B -90, C 11.3762511707, E1 0, E2 0} C_DIS
$VEL.CP=0.787981430188
LIN {X 379.699239667, Y -167.763244666, Z 500.0, A 0, B -90, C 55.9214927370, E1 0, E2 0} C_DIS
$VEL.CP=0.25
LIN {X 379.699239667, Y -154.535311758, Z 500.0, A 0, B -90, C 60.0346188584, E1 0, E2 0} C_DIS
$VEL.CP=0.25
LIN {X 408.343601528, Y -180.927674623, Z 500.0, A 0, B -90, C 18.3783080930, E1 0, E2 0} C_DIS
$VEL.CP=0.809084299853
LIN {X 447.302933280, Y -177.805513381, Z 500.0, A 0, B -90, C 339.894289055, E1 0, E2 0} C_DIS
$VEL.CP=0.188006520832
LIN {X 483.081458771, Y -160.371403483, Z 500.0, A 0, B -90, C 330.563442302, E1 0, E2 0} C_DIS
$VEL.CP=-0.0471703060896
LIN {X 517.595547484, Y -140.465937192, Z 500.0, A 0, B -90, C 330.477570050, E1 0, E2 0} C_DIS
$VEL.CP=-0.0577042410198
LIN {X 552.966649053, Y -122.155141685, Z 500.0, A 0, B -90, C 335.606028702, E1 0, E2 0} C_DIS
$VEL.CP=0.0200549569894
LIN {X 590.438406484, Y -108.779121041, Z 500.0, A 0, B -90, C 346.076897181, E1 0, E2 0} C_DIS
$VEL.CP=0.111030441034
LIN {X 629.912444193, Y -104.466754043, Z 500.0, A 0, B -90, C 2.30690694648, E1 0, E2 0} C_DIS
$VEL.CP=0.189250412809
LIN {X 668.755718578, Y -112.502506085, Z 500.0, A 0, B -90, C 20.9289565728, E1 0, E2 0} C_DIS
$VEL.CP=0.176773884228
LIN {X 703.504069041, Y -131.753475481, Z 500.0, A 0, B -90, C 36.2112856275, E1 0, E2 0} C_DIS
$VEL.CP=0.1
LIN {X 733.158544525, Y -158.280069944, Z 500.0, A 0, B -90, C 46.7095850582, E1 0, E2 0} C_DIS
$VEL.CP=0.0338191800008
LIN {X 746.103697581, Y -142.159188109, Z 500.0, A 0, B -90, C 45.9561317297, E1 0, E2 0} C_DIS
$VEL.CP=0.0825128070006
LIN {X 714.616100184, Y -115.587093085, Z 500.0, A 0, B -90, C 33.5358415083, E1 0, E2 0} C_DIS
$VEL.CP=0.1
LIN {X 677.406209912, Y -98.0810310452, Z 500.0, A 0, B -90, C 16.1350947373, E1 0, E2 0} C_DIS
$VEL.CP=0.114815324478
LIN {X 636.581230818, Y -93.3803139553, Z 500.0, A 0, B -90, C 357.339114272, E1 0, E2 0} C_DIS
$VEL.CP=0.107871393239
LIN {X 596.072889127, Y -100.755910563, Z 500.0, A 0, B -90, C 343.033438863, E1 0, E2 0} C_DIS
$VEL.CP=0.0867459094833
LIN {X 557.739494531, Y -115.975354510, Z 500.0, A 0, B -90, C 334.541732128, E1 0, E2 0} C_DIS
$VEL.CP=0.0679617641534
LIN {X 521.187012409, Y -135.146037807, Z 500.0, A 0, B -90, C 330.853650310, E1 0, E2 0} C_DIS
$VEL.CP=0.0519858744399
LIN {X 485.081208288, Y -155.158085802, Z 500.0, A 0, B -90, C 332.142509726, E1 0, E2 0} C_DIS
$VEL.CP=0.0632864603374
LIN {X 447.314168693, Y -171.669613877, Z 500.0, A 0, B -90, C 343.290112170, E1 0, E2 0} C_DIS
$VEL.CP=0.121873028035
LIN {X 406.970754547, Y -171.249342794, Z 500.0, A 0, B -90, C 24.9630207496, E1 0, E2 0} C_DIS
$VEL.CP=0.25
LIN {X 379.699239667, Y -141.307378851, Z 500.0, A 0, B -90, C 63.5204992786, E1 0, E2 0} C_DIS
$VEL.CP=0.11900793327
LIN {X 379.699239667, Y -128.079445943, Z 500.0, A 0, B -90, C 66.4917397832, E1 0, E2 0} C_DIS
$VEL.CP=0.105204725249
LIN {X 405.613334254, Y -161.263887202, Z 500.0, A 0, B -90, C 30.9754384487, E1 0, E2 0} C_DIS
$VEL.CP=0.25
LIN {X 447.081083046, Y -165.399533347, Z 500.0, A 0, B -90, C 346.722740564, E1 0, E2 0} C_DIS
$VEL.CP=0.126514681562
LIN {X 486.872037485, Y -149.922981630, Z 500.0, A 0, B -90, C 333.709900343, E1 0, E2 0} C_DIS
$VEL.CP=0.0542916302007
LIN {X 524.647256359, Y -129.842588311, Z 500.0, A 0, B -90, C 331.318333381, E1 0, E2 0} C_DIS
$VEL.CP=0.0324844767175
LIN {X 562.493426610, Y -109.896751456, Z 500.0, A 0, B -90, C 333.794304838, E1 0, E2 0} C_DIS
$VEL.CP=0.049077943601
LIN {X 601.797882168, Y -93.0605438650, Z 500.0, A 0, B -90, C 340.624526586, E1 0, E2 0} C_DIS
$VEL.CP=0.0680071598024
LIN {X 643.280977876, Y -82.9354171306, Z 500.0, A 0, B -90, C 352.989133998, E1 0, E2 0} C_DIS
$VEL.CP=0.0926394784652
LIN {X 685.862662453, Y -84.2230974058, Z 500.0, A 0, B -90, C 11.2497864116, E1 0, E2 0} C_DIS
$VEL.CP=0.110435438103
LIN {X 725.577800937, Y -99.5757482895, Z 500.0, A 0, B -90, C 30.5603557659, E1 0, E2 0} C_DIS
$VEL.CP=0.1
LIN {X 759.048850638, Y -126.038306275, Z 500.0, A 0, B -90, C 45.1553761957, E1 0, E2 0} C_DIS
$VEL.CP=0.0779023872703
LIN {X 771.994003695, Y -109.917424440, Z 500.0, A 0, B -90, C 44.3030640077, E1 0, E2 0} C_DIS
$VEL.CP=0.1
LIN {X 736.393478246, Y -83.7575690508, Z 500.0, A 0, B -90, C 27.2848549156, E1 0, E2 0} C_DIS
$VEL.CP=0.123449219542
LIN {X 694.201229188, Y -70.9465923915, Z 500.0, A 0, B -90, C 6.44670524627, E1 0, E2 0} C_DIS
$VEL.CP=0.1244692585
LIN {X 650.074998308, Y -73.0213274308, Z 500.0, A 0, B -90, C 349.270909705, E1 0, E2 0} C_DIS
$VEL.CP=0.0994348265508
LIN {X 607.620965968, Y -85.6041718512, Z 500.0, A 0, B -90, C 338.721438343, E1 0, E2 0} C_DIS
$VEL.CP=0.075911900003
LIN {X 567.239933239, Y -103.882818609, Z 500.0, A 0, B -90, C 333.285755391, E1 0, E2 0} C_DIS
$VEL.CP=0.0591376120771
LIN {X 528.003154263, Y -124.536467215, Z 500.0, A 0, B -90, C 331.848147090, E1 0, E2 0} C_DIS
$VEL.CP=0.048370915434
LIN {X 488.489907077, Y -144.644456151, Z 500.0, A 0, B -90, C 335.265842775, E1 0, E2 0} C_DIS
$VEL.CP=0.0735320497856
LIN {X 446.652237892, Y -158.964971141, Z 500.0, A 0, B -90, C 350.181441824, E1 0, E2 0} C_DIS
$VEL.CP=0.151549599994
LIN {X 404.317800592, Y -151.016985755, Z 500.0, A 0, B -90, C 36.3455325850, E1 0, E2 0} C_DIS
$VEL.CP=0.25
LIN {X 379.699239667, Y -114.851513035, Z 500.0, A 0, B -90, C 69.0415459825, E1 0, E2 0} C_DIS
$VEL.CP=0.113574272073
LIN {X 379.699239667, Y -101.623580128, Z 500.0, A 0, B -90, C 71.2454003706, E1 0, E2 0} C_DIS
$VEL.CP=0.0999508999282
LIN {X 403.108825273, Y -140.557899804, Z 500.0, A 0, B -90, C 41.0733535006, E1 0, E2 0} C_DIS
$VEL.CP=0.25
LIN {X 446.071896229, Y -152.346863533, Z 500.0, A 0, B -90, C 353.648371955, E1 0, E2 0} C_DIS
$VEL.CP=0.163294317613
LIN {X 489.965884777, Y -139.307063103, Z 500.0, A 0, B -90, C 336.808257351, E1 0, E2 0} C_DIS
$VEL.CP=0.0636998158688
LIN {X 531.277410370, Y -119.213298802, Z 500.0, A 0, B -90, C 332.424287579, E1 0, E2 0} C_DIS
$VEL.CP=0.0327676065336
LIN {X 571.988656627, Y -97.9062213762, Z 500.0, A 0, B -90, C 332.957705041, E1 0, E2 0} C_DIS
$VEL.CP=0.0369117695921
LIN {X 613.543307643, Y -78.3190026178, Z 500.0, A 0, B -90, C 337.216020265, E1 0, E2 0} C_DIS
$VEL.CP=0.0547181941457
LIN {X 656.999976656, Y -63.5307600159, Z 500.0, A 0, B -90, C 346.137859276, E1 0, E2 0} C_DIS
$VEL.CP=0.08044244925
LIN {X 702.498285903, Y -58.2356184547, Z 500.0, A 0, B -90, C 1.88186972508, E1 0, E2 0} C_DIS
$VEL.CP=0.11520882069
LIN {X 747.072369362, Y -68.1704585201, Z 500.0, A 0, B -90, C 23.7275731460, E1 0, E2 0} C_DIS
$VEL.CP=0.127696901472
LIN {X 784.939156751, Y -93.7965426055, Z 500.0, A 0, B -90, C 43.3944666505, E1 0, E2 0} C_DIS
$VEL.CP=0.1
LIN {X 797.884309808, Y -77.6756607709, Z 500.0, A 0, B -90, C 42.4243239404, E1 0, E2 0} C_DIS
$VEL.CP=0.1
LIN {X 757.629989761, Y -52.8497679996, Z 500.0, A 0, B -90, C 19.9290045744, E1 0, E2 0} C_DIS
$VEL.CP=0.130739092168
LIN {X 710.821497464, Y -46.0465146872, Z 500.0, A 0, B -90, C 357.667953419, E1 0, E2 0} C_DIS
$VEL.CP=0.0971727708504
LIN {X 664.073684885, Y -54.3695055765, Z 500.0, A 0, B -90, C 343.515775820, E1 0, E2 0} C_DIS
$VEL.CP=0.0517560515833
LIN {X 619.563225653, Y -71.1539127711, Z 500.0, A 0, B -90, C 336.021736433, E1 0, E2 0} C_DIS
$VEL.CP=0.0229583009085
LIN {X 576.747777110, Y -91.9465866718, Z 500.0, A 0, B -90, C 332.766275340, E1 0, E2 0} C_DIS
$VEL.CP=0.00302760380924
LIN {X 534.489195555, Y -113.862577850, Z 500.0, A 0, B -90, C 333.031764145, E1 0, E2 0} C_DIS
$VEL.CP=0.00710168143279
LIN {X 491.326641652, Y -133.900314020, Z 500.0, A 0, B -90, C 338.333890704, E1 0, E2 0} C_DIS
$VEL.CP=0.0470448757096
LIN {X 445.379674559, Y -145.535527419, Z 500.0, A 0, B -90, C 357.100622891, E1 0, E2 0} C_DIS
$VEL.CP=0.178554859291
LIN {X 401.995681548, Y -129.932089038, Z 500.0, A 0, B -90, C 45.2030864150, E1 0, E2 0} C_DIS
$VEL.CP=0.25
LIN {X 379.699239667, Y -88.3956472200, Z 500.0, A 0, B -90, C 73.1638667161, E1 0, E2 0} C_DIS
$VEL.CP=0.0794920371946
LIN {X 379.699239667, Y -75.1677143123, Z 500.0, A 0, B -90, C 74.8454346765, E1 0, E2 0} C_DIS
$VEL.CP=0.0448873183184
LIN {X 400.978092977, Y -119.178076904, Z 500.0, A 0, B -90, C 48.7997641687, E1 0, E2 0} C_DIS
$VEL.CP=0.25
LIN {X 444.61034953, Y -138.528967929, Z 500.0, A 0, B -90, C 0.512405929794, E1 0, E2 0} C_DIS
$VEL.CP=0.199596408063
LIN {X 492.595034400, Y -128.417610818, Z 500.0, A 0, B -90, C 339.838995147, E1 0, E2 0} C_DIS
$VEL.CP=0.016933456373
LIN {X 537.654691695, Y -108.476894413, Z 500.0, A 0, B -90, C 333.658667204, E1 0, E2 0} C_DIS
$VEL.CP=-0.0380945336943
LIN {X 581.524280946, Y -85.9888002056, Z 500.0, A 0, B -90, C 332.678285227, E1 0, E2 0} C_DIS
$VEL.CP=-0.0540273863427
LIN {X 625.678001362, Y -64.0704816032, Z 500.0, A 0, B -90, C 335.070908427, E1 0, E2 0} C_DIS
$VEL.CP=-0.0300400724761
LIN {X 671.301997904, Y -45.4593904516, Z 500.0, A 0, B -90, C 341.324680282, E1 0, E2 0} C_DIS
$VEL.CP=0.00394637030025
LIN {X 719.224348199, Y -34.3179433463, Z 500.0, A 0, B -90, C 353.865479169, E1 0, E2 0} C_DIS
$VEL.CP=0.0630839513358
LIN {X 768.088782164, Y -37.8252669272, Z 500.0, A 0, B -90, C 15.9527494892, E1 0, E2 0} C_DIS
$VEL.CP=0.12969825849
LIN {X 810.829462864, Y -61.5547789364, Z 500.0, A 0, B -90, C 41.3867804863, E1 0, E2 0} C_DIS
$VEL.CP=0.1
$OUT[1] = FALSE
PTP {A1 5, A2 -90, A3 100, A4 5, A5 10, A6 -5, E1 0, E2 0, E3 0, E4 0, E5 0, E6 0}

END